X:1
T:Arnsberg, 66.86.68.33.66
T:Arnsberg, 66.86.68.33.66
T:Joachim  Neander, 1680
T:Public Domain Courtesy of the Cyber Hymnal™
C:Joachim  Neander, 1680
Z:Public Domain
Z:Courtesy of the Cyber Hymnal™
%%score ( 1 2 ) ( 3 4 )
L:1/8
Q:1/4=115
M:4/4
K:G
V:1 treble 
V:2 treble 
V:3 bass 
V:4 bass 
V:1
|: [GB]2 [GB]2 [GB]2 [GB]2 | A4 [FA]4 | [EG]2 [EG]2 [EG]2 [EG]2 | F4 [=DF]4 | %4
 E2 [CE]2 [B,D]2 [EG]2 | [FA]2 [GB]2 A4 | G8 :| [DB]2 [DB]2 [Ec]4 | [FA]2 [FA]2 [GB]4 | %9
 [Fd]2 [Gd]2 [Gc]2 [GB]2 | A4 [GB]4 | d2 d-[Fd] [Ec]2 [GB]2 | A4 | G8 |] %14
V:2
|: x8 | (G2 FE) x4 | x8 | (E2 ^D^C) x4 | E2 x6 | x4 (G2 F2) | G8 :| x8 | x8 | x8 | (G2 F2) x4 | %11
 G3 x5 | (G2 F2) | G8 |] %14
V:3
|: [G,D]2 [G,D]2 [B,D]2 [G,D]2 | [D,D]4 [D,D]4 | [E,B,]2 [E,B,]2 [G,B,]2 [E,B,]2 | %3
 [B,,B,]4 [B,,B,]4 | [C,G,]2 [E,G,]2 G,2 [E,B,]2 | [D,D]2 [G,D]2 [D,D]4 | [G,,B,]8 :| %7
 G,2 G,2 [C,G,]4 | [D,D]2 [D,D]2 [G,B,]4 | [D,D]2 [B,,D]2 [C,E]2 [G,D]2 | [D,D]4 [G,D]4 | %11
 [B,,G,]2 [G,,B,]2 [A,,C]2 [B,,D]2 | [C,E]2 (DC) | [G,B,]8 |] %14
V:4
|: x8 | x8 | x8 | x8 | x8 | x8 | x8 :| G,2 G,2 x4 | x8 | x8 | x8 | x8 | x2 D,2 | x8 |] %14

